X:519
%%topmargin 3cm
T:The Countess of Rothes
C:Robt. McIntosh
O:Scotland
B:Keith Norman MacDonald : "The Skye collection of the best reels & strathspeys extant" : 1887
Z:Ralph Palmer
R:Strathspey
M:C
L:1/8
K:F
A | F>cc>B A<ff>c | G>dd>c Bg | F>cc>B A<ff>c | d>eTf>g {fg}aff :| F | C>FA>F c>Fd>F | c>FA>F B>GG>A |
(F/E/F/G/) A>F c>Fd>F | c<fA>G A<FF>A | C>FA>F c>Fd>F | c>FA>F B<GG>B | A<fc>A B<fd>B | (e/f/g) c>b aff |]
